icons/14x14_message_outline.svg

<svg xmlns="http://www.w3.org/2000/svg" width="14" height="14" viewBox="0 0 14 14">
  <path d="M10,7.99998 L10,3.99998 L4,3.99998 L4,7.99998 L10,7.99998 Z M5,11.7928732 L5,9.99998 L3.49999974,9.99998 C2.671,9.99998 2,9.32898 2,8.49998 L2,3.49998 C2,2.67098 2.671,1.99998 3.5,1.99998 L10.5,1.99998 C11.329,1.99998 12,2.67098 12,3.49998 L12,8.49998 C12,9.32898 11.329,9.99998 10.5,9.99998 L8,9.99998 L5.85355339,12.1464266 C5.7597852,12.2401948 5.63260824,12.2928732 5.5,12.2928732 C5.22385763,12.2928732 5,12.0690156 5,11.7928732 Z"/>
</svg>

<svg width="14" height="14" fill="none" xmlns="http://www.w3.org/2000/svg"><path d="M10 8V4H4v4h6Zm-5 3.793V10H3.5A1.5 1.5 0 0 1 2 8.5v-5A1.5 1.5 0 0 1 3.5 2h7A1.5 1.5 0 0 1 12 3.5v5a1.5 1.5 0 0 1-1.5 1.5H8l-2.146 2.146A.5.5 0 0 1 5 11.793Z" fill="#000"/></svg>
